icons/3_Generic/Web.svg

<svg width="1024" height="1024" viewBox="0 0 1024 1024" fill="none" xmlns="http://www.w3.org/2000/svg">
<g clip-path="url(#clip0_3_452)">
<path d="M512 1024C794.77 1024 1024 794.77 1024 512C1024 229.23 794.77 0 512 0C229.23 0 0 229.23 0 512C0 794.77 229.23 1024 512 1024Z" fill="#8C72BD"/>
<path d="M512 240C361.78 240 240 361.78 240 512C240 662.22 361.78 784 512 784C662.22 784 784 662.22 784 512C783.82 361.85 662.15 240.18 512 240ZM729.52 410.67H622.37C610.707 362.308 589.443 316.783 559.84 276.8C634.37 292.12 697.28 341.75 729.52 410.67ZM752 512C752.02 535.49 748.58 558.85 741.79 581.33H628.96C636.57 535.42 636.57 488.57 628.96 442.66H741.79C748.58 465.143 752.02 488.504 752 511.99V512ZM512 752C510.65 752 509.37 751.43 508.48 750.43C474.13 713.44 448.91 665.95 434.67 613.34H589.34C575.1 665.95 549.87 713.45 515.53 750.43C515.09 750.929 514.548 751.327 513.941 751.598C513.334 751.869 512.675 752.006 512.01 752H512ZM427.49 581.33C419.28 535.471 419.28 488.519 427.49 442.66H596.5C604.71 488.52 604.71 535.47 596.5 581.33H427.49ZM272 512C271.98 488.51 275.42 465.15 282.21 442.67H395.04C387.43 488.58 387.43 535.43 395.04 581.34H282.21C275.42 558.857 271.98 535.496 272 512.01V512ZM512 272C513.35 272 514.63 272.57 515.52 273.57C549.87 310.56 575.09 358.05 589.33 410.66H434.66C448.9 358.05 474.13 310.55 508.47 273.57C508.91 273.071 509.452 272.673 510.059 272.402C510.666 272.131 511.325 271.994 511.99 272H512ZM464.16 276.8C434.551 316.779 413.286 362.305 401.63 410.67H294.48C326.72 341.75 389.63 292.12 464.16 276.8ZM294.48 613.33H401.63C413.293 661.692 434.557 707.217 464.16 747.2C389.63 731.88 326.72 682.25 294.48 613.33ZM559.84 747.2C589.449 707.221 610.714 661.695 622.37 613.33H729.52C697.28 682.25 634.37 731.88 559.84 747.2Z" fill="white"/>
</g>
<defs>
<clipPath id="clip0_3_452">
<rect width="1024" height="1024" fill="white"/>
</clipPath>
</defs>
</svg>

<svg xmlns="http://www.w3.org/2000/svg" width="1024" height="1024" fill="none">
   <g clip-path="url(#a)">
      <path fill="#8C72BD" d="M512 1024c282.77 0 512-229.23 512-512S794.77 0 512 0 0 229.23 0 512s229.23 512 512 512Z"/>
      <path fill="#fff" d="M512 240c-150.22 0-272 121.78-272 272s121.78 272 272 272 272-121.78 272-272c-.18-150.15-121.85-271.82-272-272Zm217.52 170.67H622.37a371.236 371.236 0 0 0-62.53-133.87c74.53 15.32 137.44 64.95 169.68 133.87ZM752 512c.02 23.49-3.42 46.85-10.21 69.33H628.96c7.61-45.91 7.61-92.76 0-138.67h112.83A239.102 239.102 0 0 1 752 511.99v.01ZM512 752c-1.35 0-2.63-.57-3.52-1.57-34.35-36.99-59.57-84.48-73.81-137.09h154.67c-14.24 52.61-39.47 100.11-73.81 137.09a4.64 4.64 0 0 1-3.52 1.57H512Zm-84.51-170.67a393.444 393.444 0 0 1 0-138.67H596.5c8.21 45.86 8.21 92.81 0 138.67H427.49ZM272 512c-.02-23.49 3.42-46.85 10.21-69.33h112.83a423.996 423.996 0 0 0 0 138.67H282.21A239.102 239.102 0 0 1 272 512.01V512Zm240-240c1.35 0 2.63.57 3.52 1.57 34.35 36.99 59.57 84.48 73.81 137.09H434.66c14.24-52.61 39.47-100.11 73.81-137.09a4.64 4.64 0 0 1 3.52-1.57h.01Zm-47.84 4.8a370.965 370.965 0 0 0-62.53 133.87H294.48c32.24-68.92 95.15-118.55 169.68-133.87ZM294.48 613.33h107.15a371.236 371.236 0 0 0 62.53 133.87c-74.53-15.32-137.44-64.95-169.68-133.87ZM559.84 747.2a370.965 370.965 0 0 0 62.53-133.87h107.15c-32.24 68.92-95.15 118.55-169.68 133.87Z"/>
   </g>
   <defs>
      <clipPath id="a">
         <path fill="#fff" d="M0 0h1024v1024H0z"/>
      </clipPath>
   </defs>
</svg>
